svg/fluentui-system-icons/ic_fluent_receipt_28_filled.svg

<svg width="28" height="28" viewBox="0 0 28 28" fill="none" xmlns="http://www.w3.org/2000/svg">
<path d="M3 5.75C3 4.23122 4.23122 3 5.75 3H17.25C18.7688 3 20 4.23122 20 5.75V17H25V21.25C25 23.3211 23.3211 25 21.25 25H6.75C4.67893 25 3 23.3211 3 21.25V5.75ZM20 23.5H21.25C22.4926 23.5 23.5 22.4926 23.5 21.25V18.5H20V23.5ZM7 8.75C7 9.16421 7.33579 9.5 7.75 9.5H15.25C15.6642 9.5 16 9.16421 16 8.75C16 8.33579 15.6642 8 15.25 8H7.75C7.33579 8 7 8.33579 7 8.75ZM7.75 13C7.33579 13 7 13.3358 7 13.75C7 14.1642 7.33579 14.5 7.75 14.5H15.25C15.6642 14.5 16 14.1642 16 13.75C16 13.3358 15.6642 13 15.25 13H7.75ZM7 18.75C7 19.1642 7.33579 19.5 7.75 19.5H11.25C11.6642 19.5 12 19.1642 12 18.75C12 18.3358 11.6642 18 11.25 18H7.75C7.33579 18 7 18.3358 7 18.75Z" fill="#212121"/>
</svg>

<svg xmlns="http://www.w3.org/2000/svg" width="28" height="28"><path d="M3 5.75A2.75 2.75 0 0 1 5.75 3h11.5A2.75 2.75 0 0 1 20 5.75V17h5v4.25A3.75 3.75 0 0 1 21.25 25H6.75A3.75 3.75 0 0 1 3 21.25V5.75ZM20 23.5h1.25a2.25 2.25 0 0 0 2.25-2.25V18.5H20v5ZM7 8.75c0 .414.336.75.75.75h7.5a.75.75 0 0 0 0-1.5h-7.5a.75.75 0 0 0-.75.75ZM7.75 13a.75.75 0 0 0 0 1.5h7.5a.75.75 0 0 0 0-1.5h-7.5ZM7 18.75c0 .414.336.75.75.75h3.5a.75.75 0 0 0 0-1.5h-3.5a.75.75 0 0 0-.75.75Z"/></svg>
